X: 1322
T: Jenny Pippin
R:Reel
N:Collected by Ennis
B:O'Neill's 1322
Z:Transcribed by Trish O'Neil
M:C|
L:1/8
K:D
B|BADA dADA|BADA defd|BADA dADc|1dBAfe2d:|2dbafe2d||
d|dfaf bgaf|dfaf (3gag fe|dfaf bgaf|dBAfe2dd|
dfaf bgaf|bgafg2fg|agfe dBAB|dbafe2d|]


